img/icons/cards.svg

<svg width="28" height="23" viewBox="0 0 28 23" fill="none" xmlns="http://www.w3.org/2000/svg">
<path d="M27.584 11.9131C27.584 17.1144 27.5828 19.7144 25.9678 21.3311C24.3525 22.9477 21.7504 22.9482 16.5488 22.9482H11.0312C5.82996 22.9482 3.22985 22.9462 1.61328 21.3311C-0.00317655 19.7158 -0.00292969 17.1144 -0.00292969 11.9131C-0.00384927 11.3043 -0.00275874 10.7292 0 10.1885H27.5811C27.5829 10.7292 27.584 11.3043 27.584 11.9131ZM5.51562 16.3955C5.24141 16.3955 4.97816 16.5044 4.78418 16.6982C4.59025 16.8922 4.48056 17.1554 4.48047 17.4297C4.48047 17.7041 4.59018 17.9671 4.78418 18.1611C4.97819 18.3551 5.24125 18.4648 5.51562 18.4648H11.0332C11.3074 18.4647 11.5707 18.3551 11.7646 18.1611C11.9584 17.9672 12.0674 17.7039 12.0674 17.4297C12.0673 17.1555 11.9586 16.8922 11.7646 16.6982C11.5707 16.5043 11.3074 16.3956 11.0332 16.3955H5.51562ZM14.4814 16.3955C14.2072 16.3955 13.944 16.5044 13.75 16.6982C13.5561 16.8922 13.4464 17.1554 13.4463 17.4297C13.4463 17.704 13.556 17.9671 13.75 18.1611C13.944 18.3551 14.2071 18.4648 14.4814 18.4648H16.5498C16.8242 18.4648 17.0882 18.3551 17.2822 18.1611C17.476 17.9672 17.585 17.7039 17.585 17.4297C17.5849 17.1555 17.4761 16.8922 17.2822 16.6982C17.0882 16.5042 16.8242 16.3955 16.5498 16.3955H14.4814ZM16.5488 0.87793C21.7503 0.87793 24.3525 0.877619 25.9678 2.49414C27.132 3.65695 27.4568 5.33241 27.5479 8.12012H0.0322266C0.123265 5.33241 0.449092 3.65695 1.61328 2.49414C3.22849 0.877723 5.83013 0.87793 11.0312 0.87793H16.5488Z" fill="white"/>
</svg>

<svg width="28" height="23" fill="none" xmlns="http://www.w3.org/2000/svg"><path d="M27.584 11.913c0 5.201-.001 7.801-1.616 9.418-1.616 1.617-4.218 1.617-9.42 1.617h-5.517c-5.201 0-7.801-.002-9.418-1.617-1.616-1.615-1.616-4.217-1.616-9.418 0-.609 0-1.184.003-1.725h27.581c.002.541.003 1.116.003 1.725zM5.516 16.395a1.035 1.035 0 000 2.07h5.517a1.035 1.035 0 000-2.07H5.516zm8.965 0a1.035 1.035 0 000 2.07h2.069a1.037 1.037 0 001.035-1.035 1.035 1.035 0 00-1.035-1.035h-2.07zM16.55.878c5.201 0 7.803 0 9.419 1.616 1.164 1.163 1.489 2.838 1.58 5.626H.032C.123 5.332.45 3.657 1.613 2.494 3.228.878 5.83.878 11.031.878h5.518z" fill="#fff"/></svg>
